symbols/web/loyalty/materialsymbolssharp/loyalty_wght200gradN25_48px.svg

<svg xmlns="http://www.w3.org/2000/svg" height="48" width="48"><path d="m26.1 33.75 6.05-6.3q.4-.35.6-.9.2-.55.2-1.2 0-1.25-.85-2.175-.85-.925-2.1-.925-1.05 0-2 .55t-1.9 1.95q-.9-1.35-1.9-1.925-1-.575-2-.575-1.25 0-2.125.925T19.2 25.35q0 .6.225 1.175.225.575.625.925Zm-.3 8.85L6.05 22.9V6.05H23L42.7 25.7Zm-.05-2.15 14.7-14.7L22.3 7.55H7.55V22.3Zm-13.1-26q.8 0 1.325-.55.525-.55.525-1.25 0-.75-.525-1.275-.525-.525-1.275-.525-.8 0-1.3.525t-.5 1.275q0 .7.5 1.25t1.25.55Zm-5.1-6.9Z"/></svg>

<svg xmlns="http://www.w3.org/2000/svg" height="48" width="48"><path d="M26.1 33.75 32.15 27.45Q32.55 27.1 32.75 26.55Q32.95 26 32.95 25.35Q32.95 24.1 32.1 23.175Q31.25 22.25 30 22.25Q28.95 22.25 28 22.8Q27.05 23.35 26.1 24.75Q25.2 23.4 24.2 22.825Q23.2 22.25 22.2 22.25Q20.95 22.25 20.075 23.175Q19.2 24.1 19.2 25.35Q19.2 25.95 19.425 26.525Q19.65 27.1 20.05 27.45ZM25.8 42.6 6.05 22.9V6.05H23L42.7 25.7ZM25.75 40.45 40.45 25.75 22.3 7.55H7.55V22.3ZM12.65 14.45Q13.45 14.45 13.975 13.9Q14.5 13.35 14.5 12.65Q14.5 11.9 13.975 11.375Q13.45 10.85 12.7 10.85Q11.9 10.85 11.4 11.375Q10.9 11.9 10.9 12.65Q10.9 13.35 11.4 13.9Q11.9 14.45 12.65 14.45ZM7.55 7.55Z"/></svg>
